X: 39753
T: Thaidhg A Rún
R: reel
M: 4/4
K: Gmajor
GEDE GAB2|BGc2 AcB2|GEDE GABd|1 gedB ABG2:|2 gedB ABG4||
Bddd cded|d2dB ABG2|Bddd edge|dBAB G4|
Bddd c4|B2GB ABGE|DEGA Bdge|dBAB G2||

